src/components/00-materials/images-raw/Hand Leaf.svg

<svg width="96" height="96" viewBox="0 0 96 96" fill="none" xmlns="http://www.w3.org/2000/svg">
<path d="M43.36 61.3899L52.68 62.6899C53.4136 62.785 54.1564 62.785 54.89 62.6899H55.29C56.0461 62.4508 56.7142 61.9923 57.2092 61.3727C57.7042 60.753 58.0038 60.0002 58.07 59.2099C58.15 58.1532 57.8074 57.108 57.1174 56.3037C56.4275 55.4994 55.4465 55.0017 54.39 54.9199L41.54 53.2599C39.3318 52.9778 37.0887 53.1816 34.9676 53.8569C32.8464 54.5323 30.8985 55.663 29.26 57.1699L21.48 64.3199L20.91 64.7499" stroke="#00008F" stroke-width="2" stroke-linecap="round" stroke-linejoin="round"/>
<path d="M38.61 72.69C39.29 72.69 54.19 75.58 54.19 75.58C55.8457 75.9001 57.5613 75.5898 59 74.71L70.74 67.5L82.29 56.6C82.7015 56.2117 82.9533 55.6838 82.9958 55.1196C83.0383 54.5554 82.8686 53.9956 82.52 53.55C82.1971 53.1316 81.7946 52.7814 81.3356 52.5195C80.8767 52.2576 80.3703 52.0893 79.8459 52.0242C79.3215 51.9591 78.7894 51.9986 78.2803 52.1403C77.7712 52.282 77.2953 52.5233 76.88 52.85L67.33 60.29L55.33 62.67M38.61 72.69C37.4353 72.6651 36.2914 73.0665 35.39 73.82L31.53 77.1L38.61 72.69ZM48.72 28.1C45.3363 29.6656 42.3746 32.0154 40.0807 34.9545C37.7868 37.8936 36.2268 41.3373 35.53 45M19.94 63.62C19.7693 63.4204 19.5609 63.2563 19.3268 63.1372C19.0927 63.0182 18.8374 62.9463 18.5756 62.9259C18.3137 62.9055 18.0504 62.9368 17.8006 63.0182C17.5509 63.0995 17.3196 63.2293 17.12 63.4L13.7 66.3C13.2998 66.6445 13.0521 67.1332 13.0109 67.6597C12.9697 68.1861 13.1383 68.7074 13.48 69.11L25.54 83.3C25.7107 83.4996 25.9191 83.6637 26.1532 83.7828C26.3873 83.9018 26.6426 83.9737 26.9044 83.9941C27.1663 84.0145 27.4296 83.9832 27.6794 83.9018C27.9291 83.8205 28.1604 83.6907 28.36 83.52L31.78 80.62C32.1802 80.2755 32.4279 79.7868 32.4691 79.2603C32.5103 78.7339 32.3417 78.2126 32 77.81L19.94 63.62ZM59.64 30.51C58.57 36.73 54.29 41.92 45.71 41.92C42.9153 41.9628 40.2178 40.8948 38.2098 38.9506C36.2018 37.0063 35.0473 34.3446 35 31.55C35 25.82 39.35 22.71 44.64 20.15C53.21 16 65 16 65 16C65 16 61.79 18.07 59.64 30.51Z" stroke="#00008F" stroke-width="2" stroke-linecap="round" stroke-linejoin="round"/>
</svg>

<svg width="96" height="96" viewBox="0 0 96 96" fill="none" xmlns="http://www.w3.org/2000/svg"><path d="M43.36 61.39l9.32 1.3a8.595 8.595 0 002.21 0h.4a4 4 0 002.78-3.48 4 4 0 00-3.68-4.29l-12.85-1.66a15.281 15.281 0 00-12.28 3.91l-7.78 7.15-.57.43" stroke="#00008F" stroke-width="2" stroke-linecap="round" stroke-linejoin="round"/><path d="M38.61 72.69c.68 0 15.58 2.89 15.58 2.89a6.76 6.76 0 004.81-.87l11.74-7.21 11.55-10.9a2.27 2.27 0 00.23-3.05 4 4 0 00-5.64-.7l-9.55 7.44-12 2.38M38.61 72.69a4.86 4.86 0 00-3.22 1.13l-3.86 3.28 7.08-4.41zM48.72 28.1A23.45 23.45 0 0035.53 45M19.94 63.62a2 2 0 00-2.82-.22l-3.42 2.9a2 2 0 00-.22 2.81L25.54 83.3a2 2 0 002.82.22l3.42-2.9a2 2 0 00.22-2.81L19.94 63.62zm39.7-33.11c-1.07 6.22-5.35 11.41-13.93 11.41A10.55 10.55 0 0135 31.55c0-5.73 4.35-8.84 9.64-11.4C53.21 16 65 16 65 16s-3.21 2.07-5.36 14.51z" stroke="#00008F" stroke-width="2" stroke-linecap="round" stroke-linejoin="round"/></svg>
